public/icons/social-media/Telegram.svg

<svg width="24" height="24" viewBox="0 0 24 24" fill="none" xmlns="http://www.w3.org/2000/svg">
<path d="M12 24C18.6274 24 24 18.6274 24 12C24 5.37258 18.6274 0 12 0C5.37258 0 0 5.37258 0 12C0 18.6274 5.37258 24 12 24Z" fill="#101010"/>
<path d="M9.79922 17.5C9.41046 17.5 9.47652 17.3532 9.34244 16.9831L8.19922 13.2206L16.9992 8" fill="#C8DAEA"/>
<path d="M9.80078 17.4997C10.1008 17.4997 10.2333 17.3625 10.4008 17.1997L12.0008 15.6439L10.005 14.4404" fill="#A9C9DD"/>
<path d="M10.0047 14.4407L14.8407 18.0136C15.3926 18.3181 15.7908 18.1605 15.9283 17.5013L17.8968 8.225C18.0983 7.41698 17.5888 7.0505 17.0609 7.29018L5.50186 11.7473C4.71285 12.0637 4.71745 12.5039 5.35804 12.7001L8.32434 13.6259L15.1916 9.29341C15.5158 9.09682 15.8134 9.20251 15.5692 9.41925" fill="url(#paint0_linear_388_4237)"/>
<defs>
<linearGradient id="paint0_linear_388_4237" x1="10.4985" y1="12.7369" x2="11.7807" y2="16.8843" gradientUnits="userSpaceOnUse">
<stop stop-color="#EFF7FC"/>
<stop offset="1" stop-color="white"/>
</linearGradient>
</defs>
</svg>

<svg width="24" height="24" fill="none" xmlns="http://www.w3.org/2000/svg"><path d="M12 24c6.627 0 12-5.373 12-12S18.627 0 12 0 0 5.373 0 12s5.373 12 12 12Z" fill="#101010"/><path d="M9.8 17.5c-.39 0-.323-.147-.458-.517L8.2 13.221 17 8" fill="#C8DAEA"/><path d="M9.8 17.5c.3 0 .433-.137.6-.3l1.6-1.556-1.995-1.204" fill="#A9C9DD"/><path d="m10.005 14.44 4.836 3.574c.552.304.95.146 1.087-.513l1.969-9.276c.201-.808-.308-1.174-.836-.935L5.5 11.747c-.788.317-.784.757-.143.953l2.966.926 6.868-4.333c.324-.196.621-.09.377.126" fill="url(#a)"/><defs><linearGradient id="a" x1="10.498" y1="12.737" x2="11.781" y2="16.884" gradientUnits="userSpaceOnUse"><stop stop-color="#EFF7FC"/><stop offset="1" stop-color="#fff"/></linearGradient></defs></svg>
